src/icons/social-googleplus-outline.svg

<?xml version="1.0" encoding="UTF-8"?>
<svg width="512px" height="512px" viewBox="0 0 512 512" version="1.1" xmlns="http://www.w3.org/2000/svg" xmlns:xlink="http://www.w3.org/1999/xlink">
    <!-- Generator: Sketch 62 (91390) - https://sketch.com -->
    <title>social-googleplus-outline</title>
    <desc>Created with Sketch.</desc>
    <g id="social-googleplus-outline" stroke="none" stroke-width="1" fill="none" fill-rule="evenodd">
        <path d="M229.9,109.799734 C239.3,117.599734 259.1,133.699734 259.1,164.499734 C259.1,194.399734 241.8,208.599734 224.4,221.999734 C219,227.299734 212.8,232.899734 212.8,241.799734 C212.8,250.699734 219,255.599734 223.5,259.199734 L238.4,270.599734 C256.5,285.599734 273,299.399734 273,327.299734 C273,365.399734 235.4,403.800001 164.6,403.800001 C104.9,403.899734 75.9,375.899734 75.9,345.999734 C75.9,331.499734 83.3,310.799734 107.6,296.599734 C133.1,281.299734 167.9,279.199734 186.4,277.899734 C180.7,270.599734 174,262.799734 174,250.299734 C174,243.399734 176.1,239.399734 178.1,234.399734 C173.6,234.799734 169,235.199734 164.9,235.199734 C121.1,235.199734 96.4,203.299734 96.4,171.599734 C96.4,152.899734 105.1,132.299734 122.8,117.399734 C146.4,98.4997337 174.4,95.1997337 196.7,95.1997337 L281.6,95.1997337 L255.3,109.699734 L229.9,109.799734 Z M200.5,289.699734 C197.2,289.299734 195.1,289.299734 191.1,289.299734 C187.4,289.299734 165.1,290.099734 147.8,295.699734 C138.7,298.999734 112.4,308.599734 112.4,337.399734 C112.4,366.199734 140.9,386.799734 185,386.799734 C224.6,386.799734 245.6,368.099734 245.6,342.999734 C245.4,322.399734 231.9,311.499734 200.5,289.699734 M212.6,212.699734 C222,203.399734 222.8,190.399734 222.8,183.099734 C222.8,153.999734 205,108.599734 170.8,108.599734 C160.1,108.599734 148.5,113.799734 142,121.999734 C135,130.499734 132.9,141.499734 132.9,151.899734 C132.9,178.999734 149,223.999734 184.5,223.999734 C194.8,224.099734 205.8,219.099734 212.6,212.699734 M436,158.099734 L373.1,158.099734 L373.1,95.3997337 L358.9,95.3997337 L358.9,158.299734 L294.9,158.299734 L294.9,172.499734 L358.9,172.499734 L358.9,237.499734 L373.1,237.499734 L373.1,172.499734 L436,172.499734 L436,158.099734 Z" id="Shape" fill="#000000" fill-rule="nonzero"></path>
    </g>
</svg>

<svg xmlns="http://www.w3.org/2000/svg" width="512" height="512" viewBox="0 0 512 512">
    <path d="M229.9 109.8c9.4 7.8 29.2 23.9 29.2 54.7 0 29.9-17.3 44.1-34.7 57.5-5.4 5.3-11.6 10.9-11.6 19.8s6.2 13.8 10.7 17.4l14.9 11.4c18.1 15 34.6 28.8 34.6 56.7 0 38.1-37.6 76.5-108.4 76.5-59.7.1-88.7-27.9-88.7-57.8 0-14.5 7.4-35.2 31.7-49.4 25.5-15.3 60.3-17.4 78.8-18.7-5.7-7.3-12.4-15.1-12.4-27.6 0-6.9 2.1-10.9 4.1-15.9-4.5.4-9.1.8-13.2.8-43.8 0-68.5-31.9-68.5-63.6 0-18.7 8.7-39.3 26.4-54.2 23.6-18.9 51.6-22.2 73.9-22.2h84.9l-26.3 14.5-25.4.1zm-29.4 179.9c-3.3-.4-5.4-.4-9.4-.4-3.7 0-26 .8-43.3 6.4-9.1 3.3-35.4 12.9-35.4 41.7 0 28.8 28.5 49.4 72.6 49.4 39.6 0 60.6-18.7 60.6-43.8-.2-20.6-13.7-31.5-45.1-53.3m12.1-77c9.4-9.3 10.2-22.3 10.2-29.6 0-29.1-17.8-74.5-52-74.5-10.7 0-22.3 5.2-28.8 13.4-7 8.5-9.1 19.5-9.1 29.9 0 27.1 16.1 72.1 51.6 72.1 10.3.1 21.3-4.9 28.1-11.3M436 158.1h-62.9V95.4h-14.2v62.9h-64v14.2h64v65h14.2v-65H436v-14.4z"/>
</svg>
